X:19
T:Vals
R:vals
H:fr{\aa}n Transtrand?
A:Dalarna
Z:id:hn-vals-19
M:3/4
L:1/8
K:Ddor
a2|Pa^g b^g a2|ef ge f2|ed dg g2|ga fe fg|
Pa^g b^g a2|ef ge f2|ed a2 ^ce|1 d4:|2 d3||
|:efa|e3 d^cd|A3 BA^G|AB ^cd ef|d^c de fa|
e3 d^cd|A3 BA^G|AB ^cd ef|1 d3:|2 d4||
<end>
<start>
